src/ui/ScreenStart/icon-add.svg

<svg xmlns="http://www.w3.org/2000/svg" width="24" height="24" viewBox="0 0 24 24">
  <path fill-rule="evenodd" d="M12,0 C13.1045695,0 14,0.8954305 14,2 L14,10 L22,10 C23.1045695,10 24,10.8954305 24,12 C24,13.1045695 23.1045695,14 22,14 L14,14 L14,22 C14,23.1045695 13.1045695,24 12,24 C10.8954305,24 10,23.1045695 10,22 L10,14 L2,14 C0.8954305,14 0,13.1045695 0,12 C0,10.8954305 0.8954305,10 2,10 L10,10 L10,2 C10,0.8954305 10.8954305,0 12,0 Z"/>
</svg>

<svg xmlns="http://www.w3.org/2000/svg" viewBox="0 0 24 24"><path fill-rule="evenodd" d="M12 0a2 2 0 0 1 2 2v8h8a2 2 0 1 1 0 4h-8v8a2 2 0 1 1-4 0v-8H2a2 2 0 1 1 0-4h8V2a2 2 0 0 1 2-2z"/></svg>
